svgs/regular/diagram-subtask.svg

<svg xmlns="http://www.w3.org/2000/svg" viewBox="0 0 512 512"><!--! Font Awesome Pro 6.5.1 by @fontawesome - https://fontawesome.com License - https://fontawesome.com/license (Commercial License) Copyright 2023 Fonticons, Inc. --><path d="M0 96C0 60.7 28.7 32 64 32H448c35.3 0 64 28.7 64 64v64c0 35.3-28.7 64-64 64H152v96c0 22.1 17.9 40 40 40h32v-8c0-35.3 28.7-64 64-64H448c35.3 0 64 28.7 64 64v64c0 35.3-28.7 64-64 64H288c-35.3 0-64-28.7-64-64v-8H192c-48.6 0-88-39.4-88-88V224H64c-35.3 0-64-28.7-64-64V96zM448 336H288c-8.8 0-16 7.2-16 16v64c0 8.8 7.2 16 16 16H448c8.8 0 16-7.2 16-16V352c0-8.8-7.2-16-16-16z"/></svg>

<svg xmlns="http://www.w3.org/2000/svg" viewBox="0 0 512 512"><!--! Font Awesome Pro 6.1.1 by @fontawesome - https://fontawesome.com License - https://fontawesome.com/license (Commercial License) Copyright 2022 Fonticons, Inc. --><path d="M0 96C0 60.65 28.65 32 64 32H448C483.3 32 512 60.65 512 96V160C512 195.3 483.3 224 448 224H152V320C152 342.1 169.9 360 192 360H224V352C224 316.7 252.7 288 288 288H448C483.3 288 512 316.7 512 352V416C512 451.3 483.3 480 448 480H288C252.7 480 224 451.3 224 416V408H192C143.4 408 104 368.6 104 320V224H64C28.65 224 0 195.3 0 160V96zM448 336H288C279.2 336 272 343.2 272 352V416C272 424.8 279.2 432 288 432H448C456.8 432 464 424.8 464 416V352C464 343.2 456.8 336 448 336z"/></svg>
